app/assets/images/punaise.svg

<svg width="38" height="48" viewBox="0 0 38 48" fill="none" xmlns="http://www.w3.org/2000/svg">
<path d="M4.03619 18.8789C4.03619 10.7319 10.8772 4.05742 19 4.05742C27.1228 4.05742 33.9638 10.7319 33.9638 18.8789C33.9638 22.6093 32.8062 25.9071 30.7432 28.5534L19 42.7927L13.8966 36.6045C13.1852 35.742 11.913 35.6224 11.055 36.3375C10.1969 37.0526 10.078 38.3316 10.7894 39.1941L17.4464 47.2661C17.8298 47.731 18.3993 48 19 48C19.6007 48 20.1702 47.731 20.5536 47.2661L28.9262 37.1139L33.8676 31.1221C33.8787 31.1087 33.8897 31.0951 33.9004 31.0813C33.9004 31.0813 38 27.1406 38 18.8789C38 8.41366 29.2741 0 19 0C8.72586 0 0 8.41366 0 18.8789C0 19.9993 0.903533 20.9076 2.0181 20.9076C3.13266 20.9076 4.03619 19.9993 4.03619 18.8789Z" fill="#FBF9FA"/>
</svg>

<svg width="38" height="48" fill="none" xmlns="http://www.w3.org/2000/svg"><path d="M4.036 18.879c0-8.147 6.841-14.822 14.964-14.822 8.123 0 14.964 6.675 14.964 14.822 0 3.73-1.158 7.028-3.22 9.674L19 42.793l-5.103-6.188a2.01 2.01 0 00-2.842-.267 2.036 2.036 0 00-.266 2.856l6.657 8.072a2.014 2.014 0 003.108 0l8.372-10.152 4.942-5.992.032-.04S38 27.14 38 18.878C38 8.414 29.274 0 19 0S0 8.414 0 18.879c0 1.12.904 2.029 2.018 2.029a2.023 2.023 0 002.018-2.03z" fill="#FBF9FA"/></svg>
